src/star-outline.svg

<svg width="24" height="24" viewBox="0 0 24 24" xmlns="http://www.w3.org/2000/svg" xmlns:xlink="http://www.w3.org/1999/xlink">
  <path d="M22 9.24l-7.19-.62L12 2 9.19 8.63 2 9.24l5.46 4.73L5.82 21 12 17.27 18.18 21l-1.63-7.03L22 9.24zM12 15.4l-3.76 2.27 1-4.28-3.32-2.88 4.38-.38L12 6.1l1.71 4.04 4.38.38-3.32 2.88 1 4.28L12 15.4z" fill="currentColor"/>
</svg>

<svg width="24" height="24" viewBox="0 0 24 24" xmlns="http://www.w3.org/2000/svg">
<path fill-rule="evenodd" clip-rule="evenodd" d="M22 9.24L14.81 8.62L12 2L9.19 8.63L2 9.24L7.46 13.97L5.82 21L12 17.27L18.18 21L16.55 13.97L22 9.24V9.24ZM12 15.4L8.24 17.67L9.24 13.39L5.92 10.51L10.3 10.13L12 6.1L13.71 10.14L18.09 10.52L14.77 13.4L15.77 17.68L12 15.4V15.4Z" fill="currentColor"/>
</svg>
